!!!OTL: "Ritt ins Feenland " DIE KOENIGIN IST DAS SCHOENSTE WEIB
!!!ARE: Europa, Mitteleuropa, Deutschland
!!!SCT: Z1010
!!!YEM: Copyright 1995, estate of Helmut Schaffrath.
**kern
*ICvox
*Ivox
*M6/8
*k[b-e-]
*g:
{8b-
=1
8.b-
16a
8fn
4b-
8cc
=2
4dd
8cc
4dd}
{16dd
16ee-
=3
8.ffn
16ee-
16dd
16cc
4dd
8cc
=4
4b-
4.r}
{8cc
=5
4cc
8b
4cc
16ee-
16dd
=6
4cc
8b
4cc
8r}
=7
{4.cc
4.dd
=8
8.ee-
16dd
16cc
16b-
8.a
16cc
16b-
16a
=9
4.g
4r}
==
!!!AGN: Romanze, Ballade
!!!ONB: ESAC (Essen Associative Code) Database: ZUCCAL
!!!AMT: compound duple
!!!AIN: vox
!!!EED: Helmut Schaffrath
!!!EEV: 1.0
*-
